X:545
T:The Doctor's Cross
R:Hornpipe
C:Ed Reavy
M:4/4
L:1/8
Z:Joe Reavy
N:I'm sure he had many a cross
N:to bear, but this title really
N:commemorates the crossroads located
N:near the old country doctor's
N:place outside Cootehill.
N:Ed tried to find these crossroads
N:during his '69 visit, but to
N:no avail. The road had been changed
N:some years back, and the doctor
N:had long since gone from the old
N:place that Ed knew as a child.
K:D
FG|ADFA d2 eg|(3fgf ec dAFA|GEB,E G,EB,E|FEDF E2 FG|
ADFA d2 eg|(3fgf ec dAFA|fdAf gece|1d2 dc d2:|
2d2 dc d3 e||fefa gfge|fefd ecAg|(3fgf df gfed|
c2 A^G A3 g|fefa gfga|bgec dAFA|fdAf gece|
1d2 dc d3 e|2d2 dc d2||
